X:1
T:Iam enim hyems
T:Iam enim hyems
T:Anonymous
T:Source : Trium vocum cantiones---Nürnberg---J.Petreius---1541. Editor : André Vierendeels (20/05/16).
T:Notes : Original clefs :C1, C3, F3 Editorial accidentals above the staff Original note values have been halved Square brackets indicate ligatures See also the "Prima pars : Tota pulchra es" (Anonymous)
T:Secunda pars
T:©
T:©
T:©
T:©
T:©
T:©
T:©
C:Anonymous
Z:©
%%score [ 1 2 3 ]
L:1/8
Q:1/4=120
M:2/2
K:C
V:1 treble nm="Soprano" snm="S"
V:2 treble-8 nm="Tenor" snm="T"
V:3 bass nm="Bass" snm="B"
V:1
 B8 | B4 B4 | c4 B2 c2- | c2 BA G4 | z4 A4 | B2 c4 BA | G2 A4 G2 | A8 | z8 | z8 | z8 | G8 | G8 | %13
w: Iam|e- nim|hy- ems _|_ _ _ _|trans-||* * i-|it,||||i-|ber|
 A4 A4 | B8 | B4 B4 | c8 | B8- | B8 | z8 | z8 | B8 | B8 | c4 B4 | A8 | G6 A2 | B4 c4- | c2 BA B4 | %28
w: ab- i-|it|ac re-|ces-|sit.|_|||Flo-|res|ap- pa-|ru-|e- *|||
 c8- | c8 | z4 B4- | B2 B2 B4 | B4 c4- | c2 B2 A4 | G8 | z4 G4 | A4 B4 | c4 B2 AG | A4 G2 A2- | %39
w: runt,|_|vi-|* ne- ae|flo- ren-||tes|o-|do- rem|de- de- * *||
 A2 G4 F2 | G8 | z8 | z8 | z8 | z8 | G8 | G8 | A4 A4 | G4 c4- | c2 BA B2 B2 | c8 | z4 c4 | c8 | %53
w: |runt,|||||et|vox|tur- tu-|ris, tur-|* * * * tu-|ris|au-|di-|
 B4 c4- | c2 B2 A2 G2 | A8 | B8- | B8 | z8 | z8 | z8 | z8 | z8 | G8 | G3 F E2 F2- | FEDC D4 | E8 | %67
w: ta est|_ in ter- ra|no|stra.|_||||||Sur-|ge, _ _ [sur-|||
 G8 | G6 FE | D2 C2 D2 D2 | C8 | z4 c4 | c8 | c4 B4 | A8 | G8- | G8 | z8 | z4 B4 | B4 B4 | c4 c4 | %81
w: ge,]|pro- * *|* * * pe-|ra,|a-|mi-|ca me-||a,|||ve-|ni de|Li- ba-|
 B2 A4 GF | E8- | E8 | z8 | z4 G4 | G8 | A8 | B4 B4 | c6 BA | G4 B4- | B2 A2 A4- |"^#" A2 GF G4 | %93
w: no, ve- * *|ni,|||ve-|ni|_|et co-|ro- * *|* na-||* * * be-|
 A8 |] %94
w: ris.|
V:2
 z8 | z8 | e8 | e4 e4 | f8 | e6 dc | B2 c2 B4 | A8 | z4 G4 | A3 B c2 d2- | d2 c4 B2 | c4 z4 | e8 | %13
w: ||Iam|e- nim|hy-||ems trans- i-|it,|im-|ber _ _ ab-|* i- *|it,|im-|
 f8 | g6 f2 | e2 d2 g4- | g2 fe f4 | g8 | z4 d4 | c3 d e2 f2- | f2 e4 d2 | e4 z4 | e8 | e4 e4 | %24
w: ber|ab- *||* * * i-|it,|et|re- * * ces-||sit.|Flo-|res ap-|
 c4 d4 | e8 | d4 c4 | d8 | c8 | e6 e2 | e4 d4- | d2 e4 dc | d4 c2 f2- | fe e4 d2 | e8 | z4 e4 | %36
w: pa- *|ru-|e- *||runt,|vi- ne-|ae flo-|* ren- * *|||tes|o-|
 f4 g4 | e4 d4 | e4 d2 e2- | ed d4 c2 | d4 z4 | d8 | e8 | d4 g4- | g2 fe f2 f2 | g4 e4- | %46
w: do- rem|de- de-|||runt,|et|vox|tur- *|* * * * ris|est au-|
 e2 dc d2 e2 | f8 | e4 c4 | d8 | c8 | z4 e4- | e4 f4 | g4 a4- | a2 g2 g4- |"^#""^#" g2 fe f4 | g8 | %57
w: * * * di- *|ta,|[au- *|di-|ta]|in|_ ter-|ra no-|||stra,|
 z4 g4- | g4 g4 | f4 e4- | e2 dc B2 e2- | e2 d2 c2 d2- | dc c4 B2 | c4 z4 | B3 A B2 c2- | cBAG A4 | %66
w: in|_ ter-|ra no-||||stra.|Sur- * * *||
 B8 | e8 | e6 dc | B2 c4 B2 | c4 z4 | e4 f4 | e4 f4- | f2 e2 e4- | e4 d4 | e8 | z4 e4- | e4 e4 | %78
w: |ge,|pro- * *|* * pe-|ra,|a- mi-|ca me-|||a,|ve-|* ni|
 g4 g2 g2- | gf e2 d4 | c6 BA | G2 c4 B2 | c8 | z4 c4 | c4 c2 d2 | e8 | e4 e4 | f8 | d8 | c6 d2 | %90
w: de Li- ba-|* * no, ve-|||ni,|ve-|ni et co-|ro-|na- be-|ris,|et|co- *|
 e4 d4- | d4 c4 | B8 | A8 |] %94
w: ro- na-||be-|ris.|
V:3
 z8 | z8 | z8 | z8 | z8 | E,8 | E,4 E,4 | F,8 | E,8 | F,4 E,2 F,2- | F,E,D,C, D,4 | C,8- | C,8 | %13
w: |||||Iam|e- nim|hy-|ems|trans- i- *||it,||
 z8 | G,8 | G,8 | A,4 A,4 | G,8 | G,4 G,4 | A,4 G,2 A,2- | A,G,F,E, F,4 | E,8 | z4 E,4 | E,4 E,4 | %24
w: |im-|ber|ab- i-|it,|et re-|ces- * *||sit.|Flo-|res ap-|
 F,4 F,4 | E,6 F,2 | G,4 A,4 | G,8 | A,,8 | C,8 | z4 G,4- | G,2 G,2 G,4 | G,4 A,4- | A,2 G,2 F,4 | %34
w: pa- ru-|e- *|||runt,|_|vi-|* ne- ae|flo- ren-||
 E,8- | E,8 | z4 G,4 | A,4 B,4 | C4 B,2 C2- | CB,A,G, A,4 | G,8- | G,8 | z4 G,4- | G,4 G,4 | %44
w: tes|_|o-|do- rem|de de- *||runt,|_|vox|_ tur-|
 A,4 A,4 | G,4 C4- | C2 B,A, B,2 C2 | F,8 | C4 A,4 | G,8 | z4 A,4 | A,8 | A,8 | G,4 F,4- | %54
w: tu- ris|au- di-|||* ta|est|in|ter-|ra|no- *|
 F,4 E,4 | D,8 | G,8- | G,8 | z8 | z4 G,4 | G,4 G,4 | F,4 E,2 F,2- | F,E,D,C, D,4 | C,8 | %64
w: ||stra,|_||in|ter- ra|no- stra, no-||stra.|
 E,3 F, G,2 A,2- | A,G,F,E, F,4 | E,8 | C,8 | E,6 F,2 | G,2 A,2 G,4 | z4 A,4 | A,8 | A,8 | %73
w: Sur- * * *|||ge,|pro- *|* pe- ra,|a-|mi-|ca|
 A,4 G,4 | F,8 | E,8- | E,8 | E,8- | E,8 | G,4 G,4 | C,6 D,2 | E,2 F,2 D,4 | C,8- | C,8 | z4 C,4 | %85
w: me- *|a,|ve-||ni|_|de Li-|ba- *||no,|_|et|
 C,4 C4- | C2 B,A, G,2 C2 | F,8 | G,4 G,4 | A,6 G,F, | E,4 G,4- | G,4 A,4 | E,8 | A,8 |] %94
w: co- ro-|* * * na- be-|ris,|et co-|ro- * *|* na-||be-|ris.|

